app/static/images/icons/invasive_speicies.svg

<?xml version="1.0" encoding="UTF-8"?>
<svg width="48" height="48" fill="none" version="1.1" viewBox="0 0 48 48" xmlns="http://www.w3.org/2000/svg">
 <path d="m10.931 8.3148c-1.5562 0-1.5635 2.4014 0 2.4014 1.5636 0 1.5636-2.4014 0-2.4014zm34.066 23.964c-0.0442-0.9591-0.1106-1.9036-0.0295-2.8774 0.0885-1.0982 0.2803-2.1891 0.4868-3.2727 0.4204-2.2038 0.9072-4.4369 0.8703-6.6846-0.0664-3.5803-1.6078-7.1605-4.0121-9.8036-1.2096-1.3252-2.6846-2.4088-4.3514-3.097-2.0798-0.85663-4.3145-0.89324-6.5271-0.7102-1.1727 0.09518-2.3453 0.23429-3.5328 0.22697-1.1874 0-2.3822-0.11714-3.5474-0.32215-1.6595-0.29286-3.2746-0.79805-4.9267-1.1275 0.7006-1.5082-0.7449-2.8627-2.2642-2.5699-0.9367 0.17571-2.0134 1.3398-2.0208 2.3795-1.8364 0.24161-3.6139 0.86395-5.3766 1.479-0.95878 0.32947-1.9544 0.67358-2.9058 1.1056-0.11063-0.55644-0.30238-1.0982-0.59739-1.5815-0.33926-0.55644-0.7744-1.069-1.4529-1.1495-0.16226-0.02197-0.27289 0.19768-0.18438 0.32215 0.13275 0.19768 0.15488 0.48322 0.236 0.70287 0.08851 0.24893 0.20651 0.49054 0.29501 0.73216 0.13276 0.36608 0.19176 0.72483 0.23601 1.0909-0.15488-0.205-0.31714-0.39536-0.45727-0.56376-0.14012-0.1684-0.28025-0.32215-0.44988-0.46126-0.36139-0.30018-0.8039-0.44662-1.1727-0.72484-0.13275-0.1025-0.33188 0.0659-0.28026 0.21965 0.11801 0.34412 0.30976 0.6443 0.5384 0.92252 0.059 0.07322 0.12538 0.15375 0.18438 0.22697 0.01475 0.01464 0.11063 0.15375 0.1475 0.19768 0.02213 0.04393 0.08113 0.13179 0.09588 0.15376 0.22863 0.38072 0.45727 0.76144 0.56052 1.1788 0.00737 0.03661 0.02212 0.06589 0.03687 0.09518-0.33188 0.2709-0.64164 0.57841-0.9219 0.90788-0.13275 0.05125-0.25076 0.16107-0.29501 0.35143-0.19913 0.79808 0.19176 1.5888 0.54577 2.2917 0.13275 0.2709 0.29501 0.5198 0.47201 0.7614-0.16225 0.3002-0.33926 0.6004-0.56789 0.864-0.19176 0.2196-0.39826 0.3807-0.64165 0.5271-0.19175 0.1172-0.39088 0.2343-0.50151 0.432-0.07375 0.1318-0.05163 0.2855 0.05162 0.3954 0.37614 0.41 1.0989 0.0659 1.4677-0.1904 0.42776-0.2929 0.7744-0.6736 1.0768-1.0836 0.05163 0.0439 0.10326 0.0879 0.15488 0.1245 0.16226 0.1318 0.33189 0.2562 0.50889 0.366-0.0295 0.1172-0.06637 0.2417-0.10325 0.3588-0.14751 0.4613-0.25076 0.9811-0.44251 1.4204-0.08113 0.183 0.14012 0.4027 0.30238 0.2343 0.39826-0.4027 0.8629-0.6516 1.1948-1.1349 0.059-0.0805 0.11063-0.1684 0.16225-0.2562 0.96616 0.4539 1.9987 0.7541 3.0239 1.0689 0.708 0.2124 1.4603 0.4027 2.1093 0.7615 0.6785 0.3734 1.3275 0.7541 2.0503 1.0177 0.0516 0.0805 0.0959 0.1684 0.1401 0.2489 0.2287 0.4466 0.4499 0.8786 0.7154 1.3033 0.2582 0.4246 0.4868 0.8639 0.6786 1.3178 0.0811 0.205 0.1475 0.4174 0.1991 0.6297-0.1696-0.0439-0.3319-0.0805-0.5015-0.1098-0.9219-0.1538-1.8955-0.2124-2.8026 0.0732-2.2347 0.6955-3.0976 3.2874-2.2716 5.3594 0.2508 0.6296 0.9145 0.8127 1.4456 0.3807 0.7301-0.6004 1.1357-1.5082 1.8806-2.0866 0.118-0.0952 0.2582-0.1758 0.3983-0.2343l0.0148 0.0073s-0.0074 0-0.0074-0.0073c0.0442 0.0219 0.1549 0.0878 0.177 0.0951 0.3982 0.2343 0.7301 0.5565 1.0989 0.8274 1.9913 1.4789 4.639 1.4936 6.7483 0.2416 0.059-0.0366 0.1107-0.0659 0.1697-0.1025 0.0663 1.8597 0.9587 3.5802 2.3305 4.9274-0.0737 0-0.1548-0.0073-0.2286-0.0146-1.0325-0.0586-2.0651-0.0513-3.0976-0.1245-0.9219-0.0659-1.8291-0.0805-2.751 0.0146-0.8112 0.0879-1.6889 0.2197-2.3674 0.7029-0.767 0.5491-1.0915 1.5156-0.3909 2.2624 0.4868 0.5198 1.2317 0.7029 1.9102 0.8127 2.1314 0.3441 4.3293 0 6.4754 0.0219 1.1948 0.0074 2.3823-0.0073 3.577-0.0219 0.6269 0 1.2465 0.0219 1.866 0.0586 0.4056 0.0219 0.8113 0.0585 1.1874-0.022 0.2802 0.0805 0.5605 0.1391 0.8481 0.183 1.7332 0.2709 3.4959 0.3149 5.2365 0.4174 1.6446 0.1025 3.3114 0.2782 4.9635 0.2416 0.0885 0.1464 0.1623 0.2928 0.2434 0.4393 0.0516 0.1025 0.0959 0.205 0.1401 0.3075-0.0074-0.0147 0.0959 0.2416 0.1106 0.2855 0.1033 0.2929 0.1918 0.5857 0.2582 0.8932 0.0221 0.1172 0.0516 0.2343 0.0663 0.3515 0 0.0146 0.0222 0.183 0.0222 0.183 0 0.0659 0.0147 0.1245 0.0147 0.1904 0.0074 0.1611 0.0148 0.3221 0.0074 0.4832 0 0.0952 0 0.1977-0.0148 0.2929 0 0.0293-0.0221 0.2196-0.0221 0.1903-0.1106 0.7102-0.3319 1.2447-0.767 1.8304-0.3614 0.4906-0.8777 0.9518-1.4529 1.2447-0.0148 0-0.0222 0.0146-0.0295 0.0146h-0.0074c-0.0516 0.0147-0.0959 0.0366-0.1475 0.0513-0.1254 0.0439-0.2581 0.0878-0.3909 0.1245-0.3171 0.0878-0.6416 0.1537-0.9735 0.205-0.0664 0.0073-0.1254 0.0219-0.1918 0.0292-0.0221 0-0.0442 0-0.059 0.0074-0.0147 0-0.0369 0-0.0737 0.0073-0.1549 0.0146-0.3024 0.0366-0.4573 0.0512-0.3688 0.0366-0.7449 0.0586-1.1137 0.0733-0.7744 0.0292-1.5488 0.0292-2.3232 0-3.0386-0.0806-6.0919-0.3515-9.1084-0.7176-4.5579-0.5491-9.1084-1.1128-13.71-1.1861-2.5298-0.0366-5.0595 0.2343-7.4343 1.1422-1.1358 0.432-2.1683 0.9738-3.0976 1.7572-0.81128 0.6882-1.2759 1.4936-1.3718 2.5479-0.0073752 0.1171 0.022126 0.2123 0.073752 0.2782 0.044251 0.2197 0.22863 0.4027 0.47939 0.3002 1.8807-0.7761 3.8794-1.3765 5.8633-1.8231 2.1757-0.4905 4.3219-0.6443 6.5344-0.3661 2.1905 0.2783 4.3514 0.7688 6.5271 1.1203 2.22 0.366 4.4473 0.7101 6.6894 0.9078 2.2199 0.1904 4.4546 0.3002 6.6819 0.4174 1.6521 0.0805 3.3115 0.1757 4.9636 0.1464 3.1344-0.0586 6.6967-0.6223 8.7617-3.2142 2.869-3.5876 0.9146-8.0903-1.5635-11.297l-0.0148 0.022zm-28.004-28.54c0.1844-0.13911 0.3835-0.2709 0.6269-0.24893 0.0958 0.00732 0.3614 0.08786 0.413 0.19036 0.1032 0.205-0.1844 0.36608-0.2877 0.46858-0.059 0.05857-0.118 0.13179-0.1622 0.20501-0.0811 0-0.1696-0.01465-0.2508-0.02197-0.2802-0.01464-0.5605-0.02196-0.8407-0.01464 0.1253-0.21233 0.2728-0.41733 0.4941-0.57841h0.0074zm-2.8985 20.713c-0.0738 0.0073-0.0959-0.0659 0 0zm3.0165 8.083s0-0.0219 0.0073-0.0366c0 0.0147 0 0.022-0.0073 0.0366zm8.9314-0.388c-1.8365 0-3.636 0.0805-5.4577 0.2196-0.9219 0.0733-1.8364 0.1245-2.751-0.0439-0.059-0.0073-0.118-0.0219-0.177-0.0366 0.3541-0.1025 0.7597-0.205 0.8334-0.2123 0.7744-0.0952 1.5415-0.0952 2.3232-0.0732 0.9809 0.0219 1.9545 0.0146 2.9354-0.0074 0.5089-0.0146 1.0251-0.0366 1.5414-0.0805 0.2213-0.022 0.4351-0.0512 0.649-0.1025 0.0664-0.0146 0.1623-0.0512 0.2582-0.0805 0.1991 0.1391 0.4056 0.2782 0.6047 0.41h-0.7596v0.0073zm19.065 9.9939c-0.7671 1.0544-1.9692 1.7353-3.2378 2.116-1.4381 0.432-2.8099 0.5345-4.3292 0.5637-1.6373 0.0293-3.2672-0.0585-4.8972-0.1317-2.1683-0.0952-4.344-0.1977-6.5123-0.3734-2.1388-0.1758-4.2555-0.4467-6.3722-0.7688-2.1388-0.3222-4.2703-0.7541-6.4165-1.0177-2.419-0.2929-4.7791-0.1025-7.1466 0.4539-1.1137 0.2636-2.1757 0.6517-3.2525 1.0324 0.85553-0.4613 1.7627-0.7981 2.6993-1.069 2.1757-0.615 4.3956-0.7687 6.6451-0.7028 2.3453 0.0658 4.7054 0.2123 7.0433 0.4466 2.3748 0.2416 4.7423 0.593 7.1097 0.8712 2.987 0.3515 6.0256 0.6151 9.0347 0.6443 1.4972 0.0147 3.0386-0.0366 4.5063-0.3587 1.534-0.3368 2.7509-1.2008 3.6581-2.482 1.0178-1.4497 1.18-3.3167 0.7523-5.0007-0.177-0.6882-0.4499-1.3618-0.7965-1.9841-0.1254-0.2197-0.2582-0.432-0.4131-0.637-0.0442-0.0659-0.0958-0.1245-0.1475-0.1904-0.1401-0.3075-0.4351-0.5491-0.8702-0.5857-1.4161-0.1245-2.8469-0.1464-4.2629-0.2343-1.4308-0.0878-2.8616-0.1611-4.2924-0.2709-1.2833-0.1025-2.4855-0.3221-3.6581-0.8712-1.0399-0.4906-2.0651-1.0983-2.9796-1.7865-1.5488-1.1715-2.9944-2.8408-2.9133-4.8908 0.0885-2.2551 1.6816-4.1953 3.2894-5.645 2.1757-1.9548 4.9414-3.0897 7.1024-5.0592 0.2065-0.1903-0.0074-0.593-0.2877-0.4832-2.6329 0.9957-5.2733 2.2331-7.4637 4.0269-1.6004 1.3105-3.0829 2.9725-3.8646 4.9128-0.0222 0.0219-0.0369 0.0439-0.059 0.0658-0.3246 0.3881-0.6786 0.7835-1.0916 1.0836-1.7553 1.274-4.0342 1.2374-5.7232-0.1171-0.4204-0.3441-0.8702-0.7248-1.4086-0.8713-0.6196-0.1757-1.2096 0.0293-1.7185 0.3807-0.3909 0.2636-0.6932 0.6077-0.9882 0.9592 0.0663-0.3149 0.1917-0.615 0.3982-0.8786 0.4352-0.5711 1.1506-0.7322 1.8512-0.7395 0.9145-0.0146 1.7258 0.3368 2.633 0.4247 0.531 0.0512 1.0546-0.0147 1.4529-0.3881 0.3171-0.3002 0.531-0.7761 0.3687-1.208-0.1032-0.2709-0.4941-0.3588-0.6564-0.1318-0.236-1.1056-0.8112-2.1526-1.5193-3.0312-0.0737-0.0951-0.1475-0.183-0.2286-0.2782 0.1623 0.0147 0.3245 0.022 0.4794 0.0293 0.8113 0.0366 1.6373 0.0439 2.4191-0.1904 0.8334-0.2489 1.6004-0.6882 2.2494-1.2666 0.6196-0.5564 1.1874-1.3252 1.0031-2.1965-0.0443-0.2196-0.295-0.2709-0.472-0.1903-0.5753 0.2709-1.0031 0.7468-1.4825 1.1568-0.4425 0.3807-0.9809 0.7102-1.534 0.9005-0.6417 0.2197-1.2759 0.205-1.9471 0.1831-0.6343-0.022-1.2759-0.1025-1.888-0.2929-0.5974-0.1904-1.1211-0.6004-1.6521-0.9225-0.649-0.3881-1.298-0.6516-2.0134-0.8859-1.2391-0.41-2.5224-0.7249-3.695-1.2959 0.0885-0.4467 0.15488-0.9006 0.2065-1.3472 0.07376-0.5784 0-1.2374-0.60477-1.5156-0.30238-0.13909-0.59739-0.0878-0.79652 0.1172-0.11801-0.1757-0.36139-0.26361-0.56052-0.27825-0.47939-0.02196-0.61952 0.37345-0.70802 0.74685-0.01475-0.0293-0.03688-0.0586-0.05163-0.0879-0.16963-0.3002-0.47939-0.5491-0.64902-0.84931 1.6152-0.98841 3.4737-1.5888 5.2585-2.1818 2.043-0.68091 4.1228-1.435 6.2911-1.5815 0.7892-0.05125 1.5636 0 2.3232 0.11714-0.1032 0.08054-0.2065 0.16108-0.3024 0.24161-0.8998 0.77609-1.8954 2.299-1.3718 3.507 0.118 0.26361 0.4942 0.24891 0.6712 0.08786 0.3982-0.36608 0.5752-0.88591 0.8776-1.3179 0.2655-0.38073 0.5901-0.73216 0.9736-0.98842 0.354-0.23429 0.8334-0.48322 1.2021-0.51983 0.3319-0.02929 0.6195 0.03661 0.7597 0.22697 0.4941 0.65894 0.1991 1.64-0.4057 2.1599-0.3761 0.32215-0.8924 0.48323-1.3644 0.62965-0.236 0.0732-0.472 0.1464-0.7154 0.1977-0.295 0.0586-0.6121 0.0586-0.8998 0.2416-0.3908 0.2563-0.4941 0.6956-0.295 1.1129 0.3614 0.7614 1.335 0.6443 2.0135 0.5198 0.649-0.1171 1.3054-0.3661 1.888-0.6736 1.1727-0.6223 1.9766-1.8523 2.043-3.1775 0.0221-0.38805-0.0443-0.78341-0.1697-1.1495 2.0725 0.41001 4.1449 0.56376 6.2616 0.35876 2.1905-0.21233 4.4989-0.52716 6.6672 0.0366 1.571 0.41001 2.9944 1.3179 4.1523 2.4308 2.3084 2.2184 3.8572 5.418 4.0933 8.5809 0.1696 2.3136-0.3319 4.5979-0.7818 6.853-0.2434 1.2227-0.4647 2.4527-0.59 3.6901-0.118 1.2007-0.0295 2.3575 0.0147 3.5509 0 0.1758 0.0516 0.3222 0.1254 0.454 0.0295 0.0659 0.0664 0.1244 0.1106 0.1903 1.8512 2.3795 3.8351 5.9964 1.8069 8.7859l0.0222 0.0073z" fill="#020300"/>
</svg>

<svg width="48" height="48" viewBox="0 0 48 48" fill="none" xmlns="http://www.w3.org/2000/svg">
<path d="M10.9312 8.31476C9.37505 8.31476 9.36767 10.7162 10.9312 10.7162C12.4948 10.7162 12.4948 8.31476 10.9312 8.31476ZM44.9974 32.2783C44.9532 31.3192 44.8868 30.3747 44.9679 29.4009C45.0564 28.3027 45.2482 27.2118 45.4547 26.1282C45.8751 23.9244 46.3619 21.6913 46.325 19.4436C46.2586 15.8633 44.7172 12.2831 42.3129 9.63997C41.1033 8.31476 39.6283 7.23117 37.9615 6.54294C35.8817 5.68631 33.647 5.6497 31.4344 5.83274C30.2617 5.92792 29.0891 6.06703 27.9016 6.05971C26.7142 6.05971 25.5194 5.94257 24.3542 5.73756C22.6947 5.4447 21.0796 4.93951 19.4275 4.61004C20.1281 3.1018 18.6826 1.7473 17.1633 2.04017C16.2266 2.21588 15.1499 3.38002 15.1425 4.41968C13.3061 4.66129 11.5286 5.28363 9.76594 5.89864C8.80716 6.22811 7.8115 6.57222 6.86009 7.0042C6.74946 6.44776 6.55771 5.90596 6.2627 5.42274C5.92344 4.8663 5.4883 4.35379 4.80978 4.27325C4.64752 4.25128 4.53689 4.47093 4.6254 4.5954C4.75815 4.79308 4.78028 5.07862 4.8614 5.29827C4.94991 5.5472 5.06791 5.78881 5.15641 6.03043C5.28917 6.39651 5.34817 6.75526 5.39242 7.12134C5.23754 6.91634 5.07528 6.72598 4.93515 6.55758C4.79503 6.38918 4.6549 6.23543 4.48527 6.09632C4.12388 5.79614 3.68137 5.6497 3.3126 5.37148C3.17985 5.26898 2.98072 5.43738 3.03234 5.59113C3.15035 5.93525 3.3421 6.23543 3.57074 6.51365C3.62974 6.58687 3.69612 6.6674 3.75512 6.74062C3.76987 6.75526 3.86575 6.89437 3.90262 6.9383C3.92475 6.98223 3.98375 7.07009 3.9985 7.09206C4.22713 7.47278 4.45577 7.8535 4.55902 8.27083C4.56639 8.30744 4.58114 8.33672 4.59589 8.36601C4.26401 8.63691 3.95425 8.94442 3.67399 9.27389C3.54124 9.32514 3.42323 9.43496 3.37898 9.62532C3.17985 10.4234 3.57074 11.2141 3.92475 11.917C4.0575 12.1879 4.21976 12.4368 4.39676 12.6784C4.23451 12.9786 4.0575 13.2788 3.82887 13.5424C3.63711 13.762 3.43061 13.9231 3.18722 14.0695C2.99547 14.1867 2.79634 14.3038 2.68571 14.5015C2.61196 14.6333 2.63408 14.787 2.73733 14.8969C3.11347 15.3069 3.83624 14.9628 4.20501 14.7065C4.63277 14.4136 4.97941 14.0329 5.28179 13.6229C5.33342 13.6668 5.38505 13.7108 5.43667 13.7474C5.59893 13.8792 5.76856 14.0036 5.94556 14.1134C5.91606 14.2306 5.87919 14.3551 5.84231 14.4722C5.6948 14.9335 5.59155 15.4533 5.3998 15.8926C5.31867 16.0756 5.53992 16.2953 5.70218 16.1269C6.10044 15.7242 6.56508 15.4753 6.89697 14.992C6.95597 14.9115 7.0076 14.8236 7.05922 14.7358C8.02538 15.1897 9.05791 15.4899 10.0831 15.8047C10.7911 16.0171 11.5434 16.2074 12.1924 16.5662C12.8709 16.9396 13.5199 17.3203 14.2427 17.5839C14.2943 17.6644 14.3386 17.7523 14.3828 17.8328C14.6115 18.2794 14.8327 18.7114 15.0982 19.1361C15.3564 19.5607 15.585 20 15.7768 20.4539C15.8579 20.6589 15.9243 20.8713 15.9759 21.0836C15.8063 21.0397 15.644 21.0031 15.4744 20.9738C14.5525 20.82 13.5789 20.7614 12.6718 21.047C10.4371 21.7425 9.57418 24.3344 10.4002 26.4064C10.651 27.036 11.3147 27.2191 11.8458 26.7871C12.5759 26.1867 12.9815 25.2789 13.7264 24.7005C13.8444 24.6053 13.9846 24.5247 14.1247 24.4662C14.1247 24.4662 14.1247 24.4662 14.1395 24.4735C14.1395 24.4735 14.1321 24.4735 14.1321 24.4662C14.1763 24.4881 14.287 24.554 14.3091 24.5613C14.7073 24.7956 15.0392 25.1178 15.408 25.3887C17.3993 26.8676 20.047 26.8823 22.1563 25.6303C22.2153 25.5937 22.267 25.5644 22.326 25.5278C22.3923 27.3875 23.2847 29.108 24.6565 30.4552C24.5828 30.4552 24.5017 30.4479 24.4279 30.4406C23.3954 30.382 22.3628 30.3893 21.3303 30.3161C20.4084 30.2502 19.5012 30.2356 18.5793 30.3307C17.7681 30.4186 16.8904 30.5504 16.2119 31.0336C15.4449 31.5827 15.1204 32.5492 15.821 33.296C16.3078 33.8158 17.0527 33.9989 17.7312 34.1087C19.8626 34.4528 22.0605 34.1087 24.2066 34.1306C25.4014 34.138 26.5889 34.1233 27.7836 34.1087C28.4105 34.1087 29.0301 34.1306 29.6496 34.1673C30.0552 34.1892 30.4609 34.2258 30.837 34.1453C31.1172 34.2258 31.3975 34.2844 31.6851 34.3283C33.4183 34.5992 35.181 34.6432 36.9216 34.7457C38.5662 34.8482 40.233 35.0239 41.8851 34.9873C41.9736 35.1337 42.0474 35.2801 42.1285 35.4266C42.1801 35.5291 42.2244 35.6316 42.2686 35.7341C42.2612 35.7194 42.3645 35.9757 42.3792 36.0196C42.4825 36.3125 42.571 36.6053 42.6374 36.9128C42.6595 37.03 42.689 37.1471 42.7037 37.2643C42.7037 37.2789 42.7259 37.4473 42.7259 37.4473C42.7259 37.5132 42.7406 37.5718 42.7406 37.6377C42.748 37.7988 42.7554 37.9598 42.748 38.1209C42.748 38.2161 42.748 38.3186 42.7332 38.4138C42.7332 38.4431 42.7111 38.6334 42.7111 38.6041C42.6005 39.3143 42.3792 39.8488 41.9441 40.4345C41.5827 40.9251 41.0664 41.3863 40.4912 41.6792C40.4764 41.6792 40.469 41.6938 40.4617 41.6938C40.4617 41.6938 40.4617 41.6938 40.4543 41.6938C40.4027 41.7085 40.3584 41.7304 40.3068 41.7451C40.1814 41.789 40.0487 41.8329 39.9159 41.8696C39.5988 41.9574 39.2743 42.0233 38.9424 42.0746C38.876 42.0819 38.817 42.0965 38.7506 42.1038C38.7285 42.1038 38.7064 42.1038 38.6916 42.1112C38.6769 42.1112 38.6547 42.1112 38.6179 42.1185C38.463 42.1331 38.3155 42.1551 38.1606 42.1697C37.7918 42.2063 37.4157 42.2283 37.0469 42.243C36.2725 42.2722 35.4981 42.2722 34.7237 42.243C31.6851 42.1624 28.6318 41.8915 25.6153 41.5254C21.0574 40.9763 16.5069 40.4126 11.9048 40.3393C9.37505 40.3027 6.84534 40.5736 4.47052 41.4815C3.33473 41.9135 2.3022 42.4553 1.37292 43.2387C0.56164 43.9269 0.0969996 44.7323 0.0011215 45.7866C-0.00625374 45.9037 0.0232472 45.9989 0.0748739 46.0648C0.119125 46.2845 0.303506 46.4675 0.554264 46.365C2.43495 45.5889 4.43364 44.9885 6.41758 44.5419C8.59327 44.0514 10.7395 43.8976 12.952 44.1758C15.1425 44.4541 17.3034 44.9446 19.4791 45.2961C21.6991 45.6621 23.9264 46.0062 26.1685 46.2039C28.3884 46.3943 30.6231 46.5041 32.8504 46.6213C34.5025 46.7018 36.1619 46.797 37.814 46.7677C40.9484 46.7091 44.5107 46.1454 46.5757 43.5535C49.4447 39.9659 47.4903 35.4632 45.0122 32.2563L44.9974 32.2783ZM16.9937 3.73877C17.1781 3.59966 17.3772 3.46787 17.6206 3.48984C17.7164 3.49716 17.982 3.5777 18.0336 3.6802C18.1368 3.8852 17.8492 4.04628 17.7459 4.14878C17.6869 4.20735 17.6279 4.28057 17.5837 4.35379C17.5026 4.35379 17.4141 4.33914 17.3329 4.33182C17.0527 4.31718 16.7724 4.30986 16.4922 4.31718C16.6175 4.10485 16.765 3.89985 16.9863 3.73877H16.9937ZM14.0952 24.4515C14.0214 24.4588 13.9993 24.3856 14.0952 24.4515ZM17.1117 32.5345C17.1117 32.5345 17.1117 32.5126 17.119 32.4979C17.119 32.5126 17.119 32.5199 17.1117 32.5345ZM26.0431 32.1465C24.2066 32.1465 22.4071 32.227 20.5854 32.3661C19.6635 32.4394 18.749 32.4906 17.8344 32.3222C17.7754 32.3149 17.7164 32.3003 17.6574 32.2856C18.0115 32.1831 18.4171 32.0806 18.4908 32.0733C19.2652 31.9781 20.0323 31.9781 20.814 32.0001C21.7949 32.022 22.7685 32.0147 23.7494 31.9927C24.2583 31.9781 24.7745 31.9561 25.2908 31.9122C25.5121 31.8902 25.7259 31.861 25.9398 31.8097C26.0062 31.7951 26.1021 31.7585 26.198 31.7292C26.3971 31.8683 26.6036 32.0074 26.8027 32.1392C26.552 32.1392 26.2938 32.1392 26.0431 32.1392V32.1465ZM45.1081 42.1404C44.341 43.1948 43.1389 43.8757 41.8703 44.2564C40.4322 44.6884 39.0604 44.7909 37.5411 44.8201C35.9038 44.8494 34.2739 44.7616 32.6439 44.6884C30.4756 44.5932 28.2999 44.4907 26.1316 44.315C23.9928 44.1392 21.8761 43.8683 19.7594 43.5462C17.6206 43.224 15.4891 42.7921 13.3429 42.5285C10.9239 42.2356 8.56377 42.426 6.19632 42.9824C5.08266 43.246 4.02063 43.6341 2.94384 44.0148C3.79937 43.5535 4.70652 43.2167 5.64318 42.9458C7.81887 42.3308 10.0388 42.1771 12.2883 42.243C14.6336 42.3088 16.9937 42.4553 19.3316 42.6896C21.7064 42.9312 24.0739 43.2826 26.4413 43.5608C29.4283 43.9123 32.4669 44.1759 35.476 44.2051C36.9732 44.2198 38.5146 44.1685 39.9823 43.8464C41.5163 43.5096 42.7332 42.6456 43.6404 41.3644C44.6582 39.9147 44.8204 38.0477 44.3927 36.3637C44.2157 35.6755 43.9428 35.0019 43.5962 34.3796C43.4708 34.1599 43.338 33.9476 43.1831 33.7426C43.1389 33.6767 43.0873 33.6181 43.0356 33.5522C42.8955 33.2447 42.6005 33.0031 42.1654 32.9665C40.7493 32.842 39.3185 32.8201 37.9025 32.7322C36.4717 32.6444 35.0409 32.5711 33.6101 32.4613C32.3268 32.3588 31.1246 32.1392 29.952 31.5901C28.9121 31.0995 27.8869 30.4918 26.9724 29.8036C25.4236 28.6321 23.978 26.9628 24.0591 24.9128C24.1476 22.6577 25.7407 20.7175 27.3485 19.2678C29.5242 17.313 32.2899 16.1781 34.4509 14.2086C34.6574 14.0183 34.4435 13.6156 34.1632 13.7254C31.5303 14.7211 28.8899 15.9585 26.6995 17.7523C25.0991 19.0628 23.6166 20.7248 22.8349 22.6651C22.8127 22.687 22.798 22.709 22.7759 22.7309C22.4513 23.119 22.0973 23.5144 21.6843 23.8145C19.929 25.0885 17.6501 25.0519 15.9611 23.6974C15.5407 23.3533 15.0909 22.9726 14.5525 22.8261C13.9329 22.6504 13.3429 22.8554 12.834 23.2068C12.4431 23.4704 12.1408 23.8145 11.8458 24.166C11.9121 23.8511 12.0375 23.551 12.244 23.2874C12.6792 22.7163 13.3946 22.5552 14.0952 22.5479C15.0097 22.5333 15.821 22.8847 16.7282 22.9726C17.2592 23.0238 17.7828 22.9579 18.1811 22.5845C18.4982 22.2843 18.7121 21.8084 18.5498 21.3765C18.4466 21.1056 18.0557 21.0177 17.8934 21.2447C17.6574 20.1391 17.0822 19.0921 16.3741 18.2135C16.3004 18.1184 16.2266 18.0305 16.1455 17.9353C16.3078 17.95 16.47 17.9573 16.6249 17.9646C17.4362 18.0012 18.2622 18.0085 19.044 17.7742C19.8774 17.5253 20.6444 17.086 21.2934 16.5076C21.913 15.9512 22.4808 15.1824 22.2965 14.3111C22.2522 14.0915 22.0015 14.0402 21.8245 14.1208C21.2492 14.3917 20.8214 14.8676 20.342 15.2776C19.8995 15.6583 19.3611 15.9878 18.808 16.1781C18.1663 16.3978 17.5321 16.3831 16.8609 16.3612C16.2266 16.3392 15.585 16.2587 14.9729 16.0683C14.3755 15.8779 13.8518 15.4679 13.3208 15.1458C12.6718 14.7577 12.0228 14.4942 11.3074 14.2599C10.0683 13.8499 8.78503 13.535 7.61237 12.964C7.70087 12.5173 7.76725 12.0634 7.81887 11.6168C7.89263 11.0384 7.81887 10.3794 7.2141 10.1012C6.91172 9.96211 6.61671 10.0134 6.41758 10.2184C6.29957 10.0427 6.05619 9.95479 5.85706 9.94015C5.37767 9.91819 5.23754 10.3136 5.14904 10.687C5.13429 10.6577 5.11216 10.6284 5.09741 10.5991C4.92778 10.2989 4.61802 10.05 4.44839 9.74979C6.06357 8.76138 7.92213 8.16101 9.70693 7.56796C11.7499 6.88705 13.8297 6.13293 15.998 5.9865C16.7872 5.93525 17.5616 5.9865 18.3212 6.10364C18.218 6.18418 18.1147 6.26472 18.0188 6.34525C17.119 7.12134 16.1234 8.64423 16.647 9.85229C16.765 10.1159 17.1412 10.1012 17.3182 9.94015C17.7164 9.57407 17.8934 9.05424 18.1958 8.62227C18.4613 8.24154 18.7859 7.89011 19.1694 7.63385C19.5234 7.39956 20.0028 7.15063 20.3715 7.11402C20.7034 7.08473 20.991 7.15063 21.1312 7.34099C21.6253 7.99993 21.3303 8.98102 20.7255 9.50085C20.3494 9.823 19.8331 9.98408 19.3611 10.1305C19.1251 10.2037 18.8891 10.2769 18.6457 10.3282C18.3507 10.3868 18.0336 10.3868 17.7459 10.5698C17.3551 10.8261 17.2518 11.2654 17.4509 11.6827C17.8123 12.4441 18.7859 12.327 19.4644 12.2025C20.1134 12.0854 20.7698 11.8364 21.3524 11.5289C22.5251 10.9066 23.329 9.67657 23.3954 8.35137C23.4175 7.96332 23.3511 7.56796 23.2257 7.20188C25.2982 7.61189 27.3706 7.76564 29.4873 7.56064C31.6778 7.34831 33.9862 7.03348 36.1545 7.59724C37.7255 8.00725 39.1489 8.91513 40.3068 10.028C42.6152 12.2464 44.164 15.446 44.4001 18.6089C44.5697 20.9225 44.0682 23.2068 43.6183 25.4619C43.3749 26.6846 43.1536 27.9146 43.0283 29.152C42.9103 30.3527 42.9988 31.5095 43.043 32.7029C43.043 32.8787 43.0946 33.0251 43.1684 33.1569C43.1979 33.2228 43.2348 33.2813 43.279 33.3472C45.1302 35.7267 47.1141 39.3436 45.0859 42.1331L45.1081 42.1404Z" fill="#020300"/>
</svg>
